X:1
T:Title
%%score { ( 1 4 ) | ( 2 3 ) }
L:1/8
Q:1/4=100
M:4/4
K:Eb
V:1 treble nm="Grand Piano"
V:4 treble 
V:2 bass 
V:3 bass 
V:1
 [EG]2 [DF]2 E2 E2 | DE[A,B,F]G F2 E2 | B2 G2 [FB]2 [EG]2 | [DF][EG][FA][GB] [FA]2 G2 | %4
w: Johann~A.~P.~Schulz * * *||||
 edcB B>A G2 | c2 BA G2 z A, | BG E2 cA [CF]2 | E2 DF F2 E2 |] %8
w: ||||
V:2
 [E,B,]2 [B,,A,]2 [C,G,]2 [E,G,B,]2 | F,G, z B, [E,A,B,]2 [E,G,B,]2 | %2
 [E,G,E]2 [E,B,E]2 [D,B,]2 [E,B,]2 | [B,,B,]2 [B,,B,]2 [E,B,]2 [E,B,E]2 | %4
 [E,E]-[E,B,E][E,E]-[E,G,E] D,2 [E,B,E]2 | [A,E]2 [G,B,E][A,CF] [B,E]2 [B,D]2 | %6
 [G,B,E]2 [G,B,]2 [A,C]2 [A,,A,]2 | [B,,G,B,]2 [B,,B,]-[B,,A,B,] [E,A,B,]2 [E,G,B,]2 |] %8
V:3
 x8 | [B,,B,]2 B,,2 z4 | x8 | x8 | .G,2 .A,2 z4 | x8 | x8 | z2 .F,2 z4 |] %8
V:4
 x8 | x8 | x8 | x8 | z4 [B,F]2 z2 | z4 z2 F2 | x8 | x8 |] %8

